X:1
T:Title
%%score ( 1 2 ) { 3 | 4 }
L:1/8
Q:1/4=100
M:3/4
K:G
V:1 treble nm="Grand Piano, Piano"
V:2 treble 
V:3 treble nm="Grand Piano, Piano"
V:4 bass 
V:1
 [GB]4 [Ad]2 | [GB]4 G2 | [Gc]4 [EA]2 | [DF]4 D2 | [DG]4 [FA]2 | [GB]3 [FA] [EG]2 | %6
w: 1.~Christ~ is~|made~ the~|sure~ foun|da tion,~|Christ~ the~|head~ * and~|
 F-[DF] E2- [^CE]2 | D6 | [DF]4 [EA]2 | [DF]4 D2 | G3- [EG] [FA]2 | [GB]4 G2 | [Gc]4 [FB]2 | %13
w: cor * ner *|stone;~|cho sen~|of~ the~|Lord~ * and~|pre cious,~|bin ding~|
 A3 B G-[EG] | F2 F2- [^DF]2 | E6 | [E^G]4 [EG]2 | [EA]4 [EA]2 | [DF]4 [DF]2 | [DG]4 [DG]2 | %20
w: all~ * the~ *|church~ in~ *|one;~|ho ly~|Zi on's~|help~ for|e ver,~|
 [CE]4 [CE]2 | [DF]4 G-[EG] | G-[EG-] G2 ^F2 | [DG]6 |] %24
w: and~ her~|con fi *|dence~ * * a|lone.~|
V:2
 x6 | x6 | x6 | x6 | x6 | x6 | .A,2 D2 z2 | x6 | x6 | x6 | D4 z2 | x6 | x6 | E4 .^D2 | z2 E2 z2 | %15
 x6 | x6 | x6 | x6 | x6 | x6 | z2 z2 .D2 | .=F2 D4 | x6 |] %24
V:3
 D4 D2 | D4 B,2 | G,4 C2 | A,4 F,2 | G,4 C2 | B,4 ^C2 | D2 z2 z2 | F,6 | A,4 A,2 | A,4 F,A, | %10
 D4 C2 | B,4 B,2 | G,3 A, B,2 | C4 G,2 | C2 F,3 B, | G,6 | B,4 B,2 | A,4 A,2 | A,4 A,2 | G,4 G,2 | %20
 G,4 A,2 | A,4 B,2 | A,4 A,2 | B,6 |] %24
V:4
 G,4 F,2 | G,4 G,F, | E,4 C,2 | D,4 D,C, | B,,4 A,,2 | G,,4 E,2 | F,G, A,4 | D,6 | D,4 ^C,2 | %9
 D,4 D,C, | B,,4 A,,2 | G,,4 G,2 | E,4 D,2 | C,4 B,,2 | A,,2 B,,4 | E,6 | E,4 D,2 | ^C,4 C,2 | %18
 D,4 C,2 | B,,4 B,,2 | C,4 A,,2 | D,4 G,,2 | D,4 D,2 | G,,6 |] %24

